X:1101
T:Black Velvet Band, The
C:Joe Buchanan's Scottish Tome - Page 639.1
I:639 1
Z:Carl Allison
R:Folk
L:1/8
M:6/8
K:E
B | "E"B2 B/B/ GAB | A (G2 G) GF | "A"EFG EDC | "B7"(B,2> B,2) BA |
"E"G>GG B,CD | (E2 F) "C#m"G2 E | "B7"FGA DEF | "E"(E3 E2) :|
W:Chorus
%%vskip 0
B | B2 B GAB | A (G2 G) (GF) | "A"EFG EDC | "B7"B,2>B,2 BA |
"E"G2 G B,CD | (E2 F) "C#m"G2 E | "F#m"FGA "B7"DEF | "E"E3 E2 |]

